wire-ios/Wire-iOS/Resources/Images/Images.xcassets/Archive Outline.imageset/Archive Outline.svg

<svg fill="none" height="22" viewBox="0 0 16 16" width="22" xmlns="http://www.w3.org/2000/svg"><path d="m1.77783 6.0625v7.2617c0 .9255.79594 1.6758 1.77778 1.6758h8.88889c.9818 0 1.7778-.7503 1.7778-1.6758v-7.2617" stroke="#34373d" stroke-width="1.25"/><path clip-rule="evenodd" d="m3.19555 2h9.60885c.7227 0 1.0152.08013 1.3003.23061.2852.15048.509.37129.6616.65266.1525.28137.2337.56989.2337 1.28288v2.15026h-14v-2.15026c0-.71299.08122-1.00151.23374-1.28288s.37633-.50218.66152-.65266.57763-.23061 1.30029-.23061z" fill-rule="evenodd" stroke="#34373d" stroke-width="1.25"/><rect fill="#34373d" height="1" rx=".5" width="4" x="6" y="10"/></svg>

<svg width="16" height="16" viewBox="0 0 16 16" fill="none" xmlns="http://www.w3.org/2000/svg">
<path d="M1.77783 6.0625V13.3242C1.77783 14.2497 2.57377 15 3.55561 15H12.4445C13.4263 15 14.2223 14.2497 14.2223 13.3242V6.0625" stroke="#34373D" stroke-width="1.25"/>
<path fill-rule="evenodd" clip-rule="evenodd" d="M3.19555 2H12.8044C13.5271 2 13.8196 2.08013 14.1047 2.23061C14.3899 2.38109 14.6137 2.6019 14.7663 2.88327C14.9188 3.16464 15 3.45316 15 4.16615V6.31641H1L1 4.16615C1 3.45316 1.08122 3.16464 1.23374 2.88327C1.38626 2.6019 1.61007 2.38109 1.89526 2.23061C2.18045 2.08013 2.47289 2 3.19555 2Z" stroke="#34373D" stroke-width="1.25"/>
<rect x="6" y="10" width="4" height="1" rx="0.5" fill="#34373D"/>
</svg>
